X:1
T:The World of Light
T:The World of Light
T:O. Snow
T:O. Snow, 1860
T:Public Domain Courtesy of the Cyber Hymnal™
C:O. Snow
Z:Public Domain
Z:Courtesy of the Cyber Hymnal™
%%score ( 1 2 ) ( 3 4 )
L:1/8
Q:1/4=88
M:3/4
K:G
V:1 treble 
V:2 treble 
V:3 bass 
V:4 bass 
V:1
 D2 | [DG][DB] [Fd]3 [Fc]/[FA]/ | G4 [GB]2 | [Gc][Ge] [Gd]3 [GB] | [FA]4 (d>c) | %5
w: 1.~There|is a beau- ti- ful|world, Where|saints and an- gels|sing; A *|
w: 2.~There|is a beau- ti- ful|world, Where|sor- row ne- ver|comes; A *|
w: 3.~There|is a beau- ti- ful|world, Un-|seen to mor- tal|sight, And *|
w: 4.~There|is a beau- ti- ful|world, Of|har- mo- ny and|love; O, *|
 [GB][DA] [DG]3 [DG] | [DB][DG] [FA]3 G | [GB][Gd] [FA]3 [DG] | [DG]4 ||"^Refrain" [Gd]>[Gd] | %10
w: world where peace and|plea- sure reigns, And|heav’n- ly prais- es|ring.||
w: world where tears shall|ne- ver fall In|sigh- ing for our|home.|We’ll be|
w: dark- ness ne- ver|en- ters there; That|home is fair and|bright.||
w: may we safe- ly|en- ter there, And|dwell with God a-|bove.||
 [Gd]4 [GB]>[GB] | [GB]4 [Ac]>[GB] | [Ac]2 [Ac]2 [GB]>[GA] | [GB]2 [GB]2 [Gd]>[Gd] | %14
w: ||||
w: there, we’ll be|there; Palms of|vic- tory, Crowns of|glo- ry we shall|
w: ||||
w: ||||
 !fermata![Gd]4 G[GA] | [GB]3 [DA]/[DG]/ [DA]>[DG] | [DG]4 |] %17
w: |||
w: wear In that|beau- ti- ful world on|high.|
w: |||
w: |||
V:2
 D2 | x6 | G4 x2 | x6 | x4 F2 | x6 | x5 G | x6 | x4 || x2 | x6 | x6 | x6 | x6 | x4 G x | x6 | x4 |] %17
V:3
 [G,B,]2 | [G,B,]G, [D,A,]3 [D,A,]/[D,C]/ | [G,B,]4 [G,D]2 | [E,C][C,C] [G,B,]3 [G,D] | %4
 [D,D]4 [D,A,]2 | G,G, [G,B,]3 [G,B,] | [G,D][G,B,] [D,D]3 [G,B,] | [G,D][B,,D] [D,C]3 [G,B,] | %8
 [G,B,]4 || [G,B,]>[G,B,] | [G,B,]4 [G,D]>[G,D] | [G,D]4 [D,D]>[D,D] | [D,D]2 [D,D]2 [G,D]>[G,D] | %13
 [G,D]2 [G,D]2 [G,B,]>[G,B,] | !fermata![G,B,]4 [B,,D][C,D] | [D,D]3 [D,C]/[D,B,]/ [D,C]>[G,B,] | %16
 [G,B,]4 |] %17
V:4
 x2 | x G, x4 | x6 | x6 | x6 | G,G, x4 | x6 | x6 | x4 || x2 | x6 | x6 | x6 | x6 | x6 | x6 | x4 |] %17

